X:23009
T:Woodland Flowers
T:Mrs Kenny's Barn Dance
R:Hornpipe
C:Felix Burns 1864-1920
O:Scotland
M:4/4
L:1/8
Q:1/4=130
K:C
(3EF^F|"C"Gedc Gedc|"Dm"A2 df a3 g|"Dm"a2 ge f2 AB|"C"(3cBc (3ecA G2 (3EF^F|
"C"Gedc Gedc|"Dm"A2 df a3 g|"Dm"a2 ge f2 AB|1"C"(3cBc e2 c2:|2 (3cBc "C"e2 c4||
K:G
"G"(3bag dg (3bag dg|"Am"(3c'ba ea (3c'ba ea|"D"fd^cd e2 f2|"G"(3gba (3gfe d2 B2|
"G"(3bag dg (3bag dg|"Am"(3c'ba ea (3c'ba ea|"D"fd^cd e2 f2|"G"g2 f2 g4||
"Em"BABd cBce|"G"d2 g2 g3 f|"Am"edeg agfe|"D"d6 (3edc|
"G"B2 g2 g2 (3dcB|"D"A2 f2 f3 b|"Am"aeeg fefa|"G"(3gfg b2 g4|]
% --------------------------------- X ---------------------------------------
% --------------------------------- Y ---------------------------------------

